pencil.svg

<?xml version="1.0" encoding="iso-8859-1"?>
<!-- Generator: Adobe Illustrator 19.0.0, SVG Export Plug-In . SVG Version: 6.00 Build 0)  -->
<svg version="1.1" id="Capa_1" xmlns="http://www.w3.org/2000/svg" xmlns:xlink="http://www.w3.org/1999/xlink" x="0px" y="0px"
	 viewBox="0 0 469.336 469.336" style="enable-background:new 0 0 469.336 469.336;" xml:space="preserve">
<g>
	<g>
		<g>
			<path d="M347.878,151.357c-4-4.003-11.083-4.003-15.083,0L129.909,354.414c-2.427,2.429-3.531,5.87-2.99,9.258
				c0.552,3.388,2.698,6.307,5.76,7.84l16.656,8.34v28.049l-51.031,14.602l-51.51-51.554l14.59-51.075h28.025l8.333,16.67
				c1.531,3.065,4.448,5.213,7.833,5.765c0.573,0.094,1.146,0.135,1.708,0.135c2.802,0,5.531-1.105,7.542-3.128L317.711,136.26
				c2-2.002,3.125-4.712,3.125-7.548c0-2.836-1.125-5.546-3.125-7.548l-39.229-39.263c-2-2.002-4.708-3.128-7.542-3.128h-0.021
				c-2.844,0.01-5.563,1.147-7.552,3.159L45.763,301.682c-0.105,0.107-0.1,0.27-0.201,0.379c-1.095,1.183-2.009,2.549-2.487,4.208
				l-18.521,64.857L0.409,455.73c-1.063,3.722-0.021,7.736,2.719,10.478c2.031,2.033,4.75,3.128,7.542,3.128
				c0.979,0,1.958-0.136,2.927-0.407l84.531-24.166l64.802-18.537c0.195-0.056,0.329-0.203,0.52-0.27
				c0.673-0.232,1.262-0.61,1.881-0.976c0.608-0.361,1.216-0.682,1.73-1.146c0.138-0.122,0.319-0.167,0.452-0.298l219.563-217.789
				c2.01-1.991,3.146-4.712,3.156-7.558c0.01-2.836-1.115-5.557-3.125-7.569L347.878,151.357z"/>
			<path d="M456.836,76.168l-64-64.054c-16.125-16.139-44.177-16.17-60.365,0.031l-39.073,39.461
				c-4.135,4.181-4.125,10.905,0.031,15.065l108.896,108.988c2.083,2.085,4.813,3.128,7.542,3.128c2.719,0,5.427-1.032,7.51-3.096
				l39.458-39.137c8.063-8.069,12.5-18.787,12.5-30.192S464.899,84.237,456.836,76.168z"/>
		</g>
	</g>
</g>
<g>
</g>
<g>
</g>
<g>
</g>
<g>
</g>
<g>
</g>
<g>
</g>
<g>
</g>
<g>
</g>
<g>
</g>
<g>
</g>
<g>
</g>
<g>
</g>
<g>
</g>
<g>
</g>
<g>
</g>
</svg>

<svg width="470" height="470" viewBox="0 0 470 470" fill="none" xmlns="http://www.w3.org/2000/svg">
<path d="M347.878 151.357C343.878 147.354 336.795 147.354 332.795 151.357L129.909 354.414C127.482 356.843 126.378 360.284 126.919 363.672C127.471 367.06 129.617 369.979 132.679 371.512L149.335 379.852V407.901L98.304 422.503L46.794 370.949L61.384 319.874H89.409L97.742 336.544C99.273 339.609 102.19 341.757 105.575 342.309C106.148 342.403 106.721 342.444 107.283 342.444C110.085 342.444 112.814 341.339 114.825 339.316L317.711 136.26C319.711 134.258 320.836 131.548 320.836 128.712C320.836 125.876 319.711 123.166 317.711 121.164L278.482 81.901C276.482 79.899 273.774 78.773 270.94 78.773H270.919C268.075 78.783 265.356 79.92 263.367 81.932L45.763 301.682C45.658 301.789 45.663 301.952 45.562 302.061C44.467 303.244 43.553 304.61 43.075 306.269L24.554 371.126L0.409039 455.73C-0.65396 459.452 0.38804 463.466 3.12804 466.208C5.15904 468.241 7.87804 469.336 10.67 469.336C11.649 469.336 12.628 469.2 13.597 468.929L98.128 444.763L162.93 426.226C163.125 426.17 163.259 426.023 163.45 425.956C164.123 425.724 164.712 425.346 165.331 424.98C165.939 424.619 166.547 424.298 167.061 423.834C167.199 423.712 167.38 423.667 167.513 423.536L387.076 205.747C389.086 203.756 390.222 201.035 390.232 198.189C390.242 195.353 389.117 192.632 387.107 190.62L347.878 151.357Z" fill="#333333"/>
<path d="M456.836 76.168L392.836 12.114C376.711 -4.02499 348.659 -4.05599 332.471 12.145L293.398 51.606C289.263 55.787 289.273 62.511 293.429 66.671L402.325 175.659C404.408 177.744 407.138 178.787 409.867 178.787C412.586 178.787 415.294 177.755 417.377 175.691L456.835 136.554C464.898 128.485 469.335 117.767 469.335 106.362C469.335 94.957 464.899 84.237 456.836 76.168Z" fill="#333333"/>
</svg>
